svgs/sharp-solid/tree.svg

<svg xmlns="http://www.w3.org/2000/svg" viewBox="0 0 448 512"><!--! Font Awesome Pro 6.6.0 by @fontawesome - https://fontawesome.com License - https://fontawesome.com/license (Commercial License) Copyright 2024 Fonticons, Inc. --><path d="M224 0L56 176l0 32 48 0L24 288l0 32 56 0L0 416l0 32 192 0 0 32 0 32 64 0 0-32 0-32 192 0 0-32-80-96 56 0 0-32-80-80 48 0 0-32L224 0z"/></svg>

<svg xmlns="http://www.w3.org/2000/svg" viewBox="0 0 448 512"><!--! Font Awesome Pro 6.5.2 by @fontawesome - https://fontawesome.com License - https://fontawesome.com/license (Commercial License) Copyright 2024 Fonticons, Inc. --><path d="M224 0L56 176v32h48L24 288v32H80L0 416v32H192v32 32h64V480 448H448V416l-80-96h56V288l-80-80h48V176L224 0z"/></svg>
